svg/aiohttp.svg

<svg viewBox="0 0 20 20" xmlns="http://www.w3.org/2000/svg">
<rect width="100%" height="100%" fill="#2C5BB4"/>
<path fill-rule="evenodd" clip-rule="evenodd" d="M18 10C18 11.5823 17.5308 13.129 16.6518 14.4446C15.7727 15.7602 14.5233 16.7855 13.0615 17.391C11.5997 17.9965 9.99113 18.155 8.43928 17.8463C6.88743 17.5376 5.46197 16.7757 4.34315 15.6569C3.22433 14.538 2.4624 13.1126 2.15372 11.5607C1.84504 10.0089 2.00347 8.40034 2.60897 6.93853C3.21447 5.47672 4.23985 4.22729 5.55544 3.34824C6.87104 2.46919 8.41775 2 10 2C12.1217 2 14.1566 2.84285 15.6569 4.34315C17.1571 5.84344 18 7.87827 18 10ZM6.33497 3.58516C6.18568 3.67046 6.03907 3.76114 5.89545 3.8571C4.6805 4.66891 3.73356 5.82275 3.17438 7.17274C2.61838 8.51503 2.47057 9.99129 2.74914 11.4168L2.76001 11.318L5.93537 11.6613C6.02311 11.2724 6.37064 10.982 6.786 10.982C6.93419 10.982 7.07375 11.019 7.19596 11.0842L9.00135 8.46713C8.61452 8.16361 8.366 7.69182 8.366 7.162C8.366 6.74903 8.51698 6.37132 8.76676 6.08107L6.26801 3.65601L6.33497 3.58516ZM4.7759 15.2241C3.76197 14.2102 3.06543 12.9235 2.77037 11.5215L5.91403 11.8607C5.91674 12.2185 6.13488 12.525 6.44513 12.6569L5.95464 14.3236C5.94124 14.3225 5.92768 14.322 5.914 14.322C5.64117 14.322 5.42 14.5432 5.42 14.816C5.42 15.0554 5.59036 15.2551 5.8165 15.3004L5.81419 16.0878C5.44416 15.8334 5.0964 15.5446 4.7759 15.2241ZM5.91513 16.156C6.71304 16.6855 7.6103 17.0574 8.55868 17.246C9.99181 17.5311 11.4773 17.3848 12.8273 16.8256C13.4702 16.5593 14.0686 16.2051 14.6068 15.7758L14.512 15.816L14.3204 15.3666C14.2892 15.3728 14.257 15.376 14.224 15.376C13.9512 15.376 13.73 15.1548 13.73 14.882C13.73 14.7144 13.8135 14.5662 13.9412 14.4769L13.4994 13.4404C13.421 13.4636 13.3379 13.476 13.252 13.476C12.8832 13.476 12.5678 13.247 12.4404 12.9234L10.7253 13.3773C10.7258 13.3862 10.726 13.3951 10.726 13.404C10.726 13.6768 10.5048 13.898 10.232 13.898C9.95918 13.898 9.73801 13.6768 9.73801 13.404C9.73801 13.3672 9.74203 13.3314 9.74965 13.2969L7.53453 12.3016C7.38217 12.5558 7.10396 12.726 6.786 12.726C6.73557 12.726 6.68614 12.7217 6.63805 12.7135L6.14705 14.3803C6.30237 14.4636 6.408 14.6274 6.408 14.816C6.408 15.0546 6.23888 15.2536 6.014 15.2999V16.156H5.91513ZM7.61721 12.1183L9.83218 13.1138C9.92198 12.9903 10.0676 12.91 10.232 12.91C10.4255 12.91 10.5931 13.0213 10.6741 13.1834L12.3888 12.7284C12.383 12.6878 12.38 12.6462 12.38 12.604C12.38 12.3208 12.515 12.0692 12.7241 11.9099L10.7825 8.63673C10.5552 8.75387 10.2973 8.82 10.024 8.82C9.71018 8.82 9.41673 8.73281 9.16655 8.58135L7.36025 11.1978C7.54275 11.3576 7.658 11.5923 7.658 11.854C7.658 11.9461 7.64371 12.035 7.61721 12.1183ZM13.6839 13.3617L14.1252 14.3979C14.1571 14.3914 14.1902 14.388 14.224 14.388C14.4968 14.388 14.718 14.6092 14.718 14.882C14.718 15.0506 14.6335 15.1995 14.5046 15.2886L14.6851 15.7125C15.2445 15.2537 15.7366 14.7127 16.1429 14.1046C16.2955 13.8762 16.4347 13.6404 16.5601 13.3982L14.0798 12.8788C14.0116 13.0844 13.869 13.256 13.6839 13.3617ZM11.682 7.162C11.682 7.73272 11.3936 8.23609 10.9547 8.53436L12.8967 11.8074C13.0052 11.7589 13.1255 11.732 13.252 11.732C13.7336 11.732 14.124 12.1224 14.124 12.604C14.124 12.6305 14.1228 12.6567 14.1205 12.6826L16.628 13.208L16.6087 13.3027C17.1193 12.281 17.388 11.1507 17.388 10C17.388 8.28494 16.7917 6.63135 15.7138 5.31648L15.744 5.41001L14.714 5.74452C14.7166 5.7653 14.718 5.78649 14.718 5.808C14.718 6.08082 14.4968 6.302 14.224 6.302C14.0368 6.302 13.874 6.19793 13.7902 6.04451L11.6294 6.74621C11.6637 6.87908 11.682 7.01841 11.682 7.162ZM6.42901 3.53234L8.90618 5.93746C9.20096 5.66822 9.5933 5.504 10.024 5.504C10.7254 5.504 11.3251 5.93956 11.5674 6.55498L13.7319 5.85166C13.7306 5.83727 13.73 5.82271 13.73 5.808C13.73 5.53517 13.9512 5.314 14.224 5.314C14.404 5.314 14.5615 5.41023 14.6478 5.55405L15.6425 5.23084C15.51 5.07401 15.3704 4.9222 15.2241 4.7759C13.8386 3.39038 11.9594 2.612 10 2.612C8.74766 2.612 7.51943 2.93028 6.42901 3.53234Z" fill="white"/>
</svg>

<svg xmlns="http://www.w3.org/2000/svg" viewBox="0 0 20 20">
  <rect width="100%" height="100%" fill="#2C5BB4"/>
  <path fill="#fff" fill-rule="evenodd" d="M18 10a8 8 0 1 1-16 0 8 8 0 0 1 16 0ZM6.33 3.59a7.4 7.4 0 0 0-3.58 7.83l.01-.1 3.18.34a.87.87 0 0 1 1.26-.58L9 8.47a1.66 1.66 0 0 1-.23-2.39l-2.5-2.42.06-.07ZM4.78 15.22a7.39 7.39 0 0 1-2.01-3.7l3.14.34c0 .36.22.67.54.8l-.5 1.66a.5.5 0 0 0-.53.5c0 .24.17.44.4.48v.79a7.39 7.39 0 0 1-1.04-.87Zm1.14.94a7.39 7.39 0 0 0 8.69-.38l-.1.04-.19-.45a.5.5 0 0 1-.38-.9l-.44-1.03a.87.87 0 0 1-1.06-.52l-1.71.46v.02a.5.5 0 1 1-.98-.1l-2.22-1a.87.87 0 0 1-.9.41l-.48 1.67a.5.5 0 0 1-.14.92v.86h-.1Zm1.7-4.04 2.21 1a.5.5 0 0 1 .84.06l1.72-.45a.88.88 0 0 1 .33-.82l-1.94-3.27a1.65 1.65 0 0 1-1.61-.06L7.36 11.2a.87.87 0 0 1 .26.92Zm6.06 1.24.45 1.04a.5.5 0 0 1 .37.89l.19.42a7.39 7.39 0 0 0 1.87-2.31l-2.48-.52a.87.87 0 0 1-.4.48Zm-2-6.2c0 .57-.29 1.08-.73 1.37l1.95 3.28c.1-.05.23-.08.35-.08a.87.87 0 0 1 .87.95l2.5.53-.01.1a7.39 7.39 0 0 0-.9-8l.03.1-1.03.33v.07a.5.5 0 0 1-.92.23l-2.16.7c.03.14.05.28.05.42ZM6.43 3.53l2.48 2.4a1.65 1.65 0 0 1 2.66.62l2.16-.7v-.04a.5.5 0 0 1 .92-.26l1-.32a7.37 7.37 0 0 0-9.22-1.7Z" clip-rule="evenodd"/>
</svg>
